src/Pure/16/symbolic/actions/graveyard-symbolic.svg

<?xml version="1.0" encoding="UTF-8" standalone="no"?>
<svg
   width="16px"
   height="16px"
   version="1.1"
   id="svg1"
   sodipodi:docname="graveyard-symbolic.svg"
   inkscape:version="1.4.2 (ebf0e940d0, 2025-05-08)"
   xmlns:inkscape="http://www.inkscape.org/namespaces/inkscape"
   xmlns:sodipodi="http://sodipodi.sourceforge.net/DTD/sodipodi-0.dtd"
   xmlns="http://www.w3.org/2000/svg"
   xmlns:svg="http://www.w3.org/2000/svg">
  <defs
   id="defs1">
   <style
    id="current-color-scheme"
    type="text/css">.ColorScheme-Text { color:#363636; }</style>
   </defs>
  <sodipodi:namedview
     id="namedview1"
     pagecolor="#ffffff"
     bordercolor="#000000"
     borderopacity="0.25"
     inkscape:showpageshadow="2"
     inkscape:pageopacity="0.0"
     inkscape:pagecheckerboard="0"
     inkscape:deskcolor="#d1d1d1"
     inkscape:zoom="49.6875"
     inkscape:cx="8"
     inkscape:cy="8"
     inkscape:window-width="1920"
     inkscape:window-height="1010"
     inkscape:window-x="0"
     inkscape:window-y="0"
     inkscape:window-maximized="1"
     inkscape:current-layer="svg1" />
  <path
     id="path1"
     style="fill:currentColor"
     class="ColorScheme-Text"
     d="M 12.634766 2.2421875 L 11.634766 3.9746094 L 9.0351562 2.4746094 L 8.5351562 3.3398438 L 11.134766 4.8398438 L 8.1503906 10.009766 A 6 6 0 0 0 8 10 A 6 6 0 0 0 2.3632812 14 L 1 14 L 1 15 L 15 15 L 15 14 L 13.642578 14 A 6 6 0 0 0 9.2285156 10.140625 L 12 5.3398438 L 14.597656 6.8398438 L 15.097656 5.9746094 L 12.5 4.4746094 L 13.5 2.7421875 L 12.634766 2.2421875 z M 8 11 A 5 5 0 0 1 12.580078 14 L 3.4238281 14 A 5 5 0 0 1 8 11 z " />
</svg>

<svg width="16px" height="16px" version="1.1">
 <path d="m12.635 2.2422-1 1.7324-2.5996-1.5-0.5 0.86523 2.5996 1.5-2.9844 5.1699a6 6 0 0 0-0.15039-0.009766 6 6 0 0 0-5.6367 4h-1.3633v1h14v-1h-1.3574a6 6 0 0 0-4.4141-3.8594l2.7715-4.8008 2.5977 1.5 0.5-0.86523-2.5977-1.5 1-1.7324-0.86523-0.5zm-4.6348 8.7578a5 5 0 0 1 4.5801 3h-9.1562a5 5 0 0 1 4.5762-3z" fill="#363636"/>
</svg>
